findly-builder/apps/searchassist/src/assets/icons/tasks_empty.svg

<svg width="498" height="149" xmlns="http://www.w3.org/2000/svg"><g fill="none" fill-rule="evenodd"><path d="M186 .5v15H0V.5h186Zm0 56v15H0v-15h186Zm0 56v15H0v-15h186ZM498 .5v15h-24V.5h24Zm0 56v15h-24v-15h24Zm0 56v15h-24v-15h24Z" fill="#E5E8EC" fill-rule="nonzero"/><path d="M.384 36h497.519M.384 92h497.519M.384 148h497.519" stroke="#E5E8EC" stroke-linecap="square"/></g></svg>

<?xml version="1.0" encoding="UTF-8"?>
<svg width="498px" height="149px" viewBox="0 0 498 149" version="1.1" xmlns="http://www.w3.org/2000/svg" xmlns:xlink="http://www.w3.org/1999/xlink">
    <!-- Generator: Sketch 53.2 (72643) - https://sketchapp.com -->
    <title>tasks_empty</title>
    <desc>Created with Sketch.</desc>
    <g id="Page-1" stroke="none" stroke-width="1" fill="none" fill-rule="evenodd">
        <g id="tasks_empty">
            <path d="M186,0.5 L186,15.5 L0,15.5 L0,0.5 L186,0.5 Z M186,56.5 L186,71.5 L0,71.5 L0,56.5 L186,56.5 Z M186,112.5 L186,127.5 L0,127.5 L0,112.5 L186,112.5 Z M498,0.5 L498,15.5 L474,15.5 L474,0.5 L498,0.5 Z M498,56.5 L498,71.5 L474,71.5 L474,56.5 L498,56.5 Z M498,112.5 L498,127.5 L474,127.5 L474,112.5 L498,112.5 Z" id="Shape" fill="#E5E8EC" fill-rule="nonzero"></path>
            <path d="M0.384,36 L497.903,36 M0.384,92 L497.903,92 M0.384,148 L497.903,148" id="Shape" stroke="#E5E8EC" stroke-linecap="square"></path>
        </g>
    </g>
</svg>
